!!!OTL: De Baurejong (290), S. 604
!!!id: T0480
**kern
*clefG2
*k[f#]
*G:
{8d
=1
8g
8d
8d
8d
=2
8e
8d
4d}
=3
{8d
8d
8e
8f#
=4
4g}
8r
=5
{8d
=6
8g
8d
8d
8d
=7
8e
8d
4d}
=8
{8d
8d
8e
8f#
=9
4g}
8r
=10
{8d
=11
8.cc
16cc
8cc
8cc
=12
8.b
16b
8b}
8r
=13
{8.a
16a
8a
8a
=14
8g
8b
8dd}
=15
{8d
=16
8.cc
16cc
8cc
8cc
=17
8.b
16b
8b}
8r
=18
{8.a
8a
16g
8g
=19
4g}
8r
==
*-
!!!minrhy: 16
!!!meters: 2/4 ]  ZZ[8
!!!cut: De Baurejong (290), S. 604
!!!reg: Luxemburg
!!!trd: Singendes Volk, Esch-Alzette, 1937 posth.
!!!rhy1: X_  X_X_X_X_  X_X_X__   (x2)
!!!rhy2: X_X_X_X_  X__0
!!!key: T0480  16  G 2/4 ]  ZZ[8
!!!mod: HEPTATONIK IONISCH]  AMBITUS[8
!!!kad: -51-513531
!!!akz: 1-6_-51_1-6_-51_43_21_43_21_
!!!fot: 'a__b__a__b__c__cs"c__cs'
!!!for: 'a__aw_a__aw_b__c__b__d__
!!!fok: '^__/__^__/__/__/__/__\__
!! PHRAS[GEMISCHTTAKTIG]
!!!fkt: Brautwerbung
!!!bem: Heffingen, hhh Johann Sins
!! THILL, Mathias
!! PR[39] 2K[10] 2G[12] 3K[0] 3G[4] 4A[4] 4Ü[0] 5A[0] 6K[0] 6G[1]
!! 7K[0] 7G[0] 8A[0] MEHR[0] SI[31] ABS[77] SR[22] SP[9]
!! ST[29] 2k[9] 2g[14] 3k[1] 3g[1] 4d[1] 4ü[0] 5d[1] 6k[0] 6g[1]
!! 7k[0] 7g[0] 8d[0] mehr[0] si[30] dm[+1] sr[23] sp[6]
!! 1F[60] 2F[40] 3F[0] 4F[0] LF[0] 2P[0] 3P[0] 4P[0] TRI[0] DF[2] AB[83]
!! TF[0] U3K[0] U3[0] U4[0] U4Ü[0] U5[40] U6K[0] U6[18] U7K[0] U7[8]
!! N1[10] N2K[0] N2[5] N3K[6] N3[12] N4[1] N4Ü[0] N5[0] N6K[0] N6[0]
!!!n7k: 0] N7[0] O1[0] O2K[0] O2[0] O3K[0] O3[0] HÖ[0
